!!!OTL: 78. Gas-nign
!!!Genre:	Gas-nign
!!!Mode:	Minor
!!!Listening/dance:	listening
!!!:	*B-
!!!One_Mode:	no
**kern
*thru
*I"P1
*clefG2
*k[b-e-]
*B-:
!LO:TX:a:i:t=Bb-major
8fL
8b-J
(16ddLL
16ffJJ)
=9
8ee-L
8ddJ
(16ccLL
16b-JJ)
=10
16ffLL
16ggJJ
16ffLL
16ggJJ
16ffLL
16ggJJ
=11
8ffL
8ee-J
(16ddLL
16ccJJ)
=12
4b-
(16ddLL
16ffJJ)
=13
8ee-L
8ddJ
16ccLL
16b-JJ
=14
8ccL
8ccJ
(8qcc/
16b-LL)
16aJJ
=15
!LO:TX:b:Bi:t=D.C. al Fine
4b-
8r
!!!End-Modulation
==
*-
